X:1
T: Albion Hornpipe
C:Carl Volti
R:Reel
I:speed 232
Q:232
K:G
M:4/4
L:1/8
|:((3DEF) |G2B2 d4|ed ^ce dB G2|bg dB gd BG|A^G AB A2((3DEF)|
G2B2 d4|ed ^ce dBG2|1FA df eg ec|d2f2 d2((3DEF):|2bg dB gd BG|AG AB G2|
|:D2|G,B, DG Bd gb|((3aba)g2 g4|d'b gd Bd gb|a^g ab a2D2|
G,B, DG Bd gb|((3aba)g2|g4 d'b gd|Bd gb ag ab|g2:|
